X: 18579
T: I Ne'er Shall Wean Her
R: jig
M: 6/8
K: Bminor
B2A|:FAA AFE|FAA d2c|~B3 BAB|def f2e|
def a2b|afe d2e|fbb fge|1 dBB B2A:|2 dBB B2e||
|:faa afe|faa a2e|fbb bab|c'ba b2c|
def a2b|afe d2e|fbb fge|1 dBB B2e:|2 dBB B2A||

